**kern	**kern
*part1	*part1
*staff2	*staff1
*I"Piano	*
*clefF4	*clefG2
*k[b-]	*k[b-]
=1	=1
4C	16eLL
.	16g
.	16cc
.	16g
8r	16e
.	16gJJ
=	=
4C 4c	16eLL
.	16g
.	16cc
.	16g
8r	16e
.	16gJJ
=	=
4GG 4G	16fLL
.	16g
.	16bn
.	16g
8r	16f
.	16gJJ
=	=
4GG 4G	16fLL
.	16g
.	16bn
.	16g
8r	16f
.	16gJJ
=	=
4CC 4C	16eLL
.	16g
.	16cc
.	16g
8r	16e
.	16cJJ
=	=
4E	16dLL
.	16e
.	16g#X
.	16e
8r	16d
.	16eJJ
=	=
4A	16cLL
.	16e
.	16a
.	16e
8r	16c
.	16eJJ
=	=
4E	16dLL
.	16e
.	16g#X
.	16e
8r	16d
.	16eJJ
=	=
*-	*-
!!!system-decoration: {(s1,s2)}
